X: 1
T: Tuginata pusta da ostane
R: lesnoto
O: Bulgaria
Z: John Chambers <jc@trillian.mit.edu>
M: 7/8
L: 1/8
K: G
P: Instr.
|: "C"[e2c][dB] "(Am)"[cA][dB] [ec][cA] | "G"[d2B][cA] "(Em)"[BG][cA] [dB][BG] |1 \
 "D7"[c2A][BG] [AF][BG] [cA][AD] | "G"[B2G][AD] [BG][cA] [d2B] :|2 \
 "D7"[c2A][BG] [AF][BG] [cA][AF] | "G"[B7G]- | [B3G] z4 ||
P: Vocal
|| "G"[D2G][GB] [G2B] [G2B] | "Am"[A2c][Bd] ([ce][Bd]) ([Ac][GB]) | "D7"([Bd][A2c]) [A4c]- | [A7c] |
